X: 1
T: Paspie Minuet
C: A.J.Vanpelt de Maastricht (1786-1824)
N: "For the two cousins"
N: Originally 3/2 meter
B: Speelmansbock van Tongeren
M: 3/4
L: 1/8
K: F
|: "F"FG AB cA |    FA "C"GG "F"F2 | "Bb"de    "F"fc    BA |  "G" GF GA "C"G2 |
|  "F"FG AB c2 |"Bb"de    fg "F"fc | "Bb"dc/B/ "F"A2 "C"G2 |  "F" F6         :|
|: "F"f2 fg af | "C"e2    ef    ge | "Bb"d2       de    fd | "(F)"d2 "F"c4    |
| "Gm"BA Bc dB | "F"AF    Ac    fc | "Bb"dc/B/ "F"A2 "C"G2 |  "F" F6         :|
%%sep 1 1 500
